svgs/sharp-solid/paragraph-left.svg

<svg xmlns="http://www.w3.org/2000/svg" viewBox="0 0 384 512"><!--! Font Awesome Pro 6.6.0 by @fontawesome - https://fontawesome.com License - https://fontawesome.com/license (Commercial License) Copyright 2024 Fonticons, Inc. --><path d="M320 64l32 0 0-64L320 0 160 0 144 0C82.1 0 32 50.1 32 112s50.1 112 112 112l16 0 0 64 0 32 64 0 0-32 0-224 32 0 0 224 0 32 64 0 0-32 0-224zM128 384l0-64-32 0L0 416l96 96 32 0 0-64 224 0 32 0 0-64-32 0-224 0z"/></svg>

<svg xmlns="http://www.w3.org/2000/svg" viewBox="0 0 384 512"><!--! Font Awesome Pro 6.4.2 by @fontawesome - https://fontawesome.com License - https://fontawesome.com/license (Commercial License) Copyright 2023 Fonticons, Inc. --><path d="M320 64h32V0H320 160 144C82.1 0 32 50.1 32 112s50.1 112 112 112h16l0 64v32h64V288l0-224h32l0 224v32h64V288 64zM128 384V320H96L0 416l96 96h32V448H352h32V384H352 128z"/></svg>
